X:446
T: KEHR WIEDER GLUECK MIT FREUDEN
N: E1662
O: Europa, Mitteleuropa, Deutschland
R: Staende -, Hofe -, Ritter - Lied, Liebe
M: 4/4
L: 1/8
K: G
G2G2G2 | c3de2c2 | d4c2
c2 | d2c2B2AG | A2A2G4 | z2
G2G2G2 | c3de2c2 | d4c2
c2 | d2c2B2AG | A2A2G4 | z2
d2d2d2 | c2e2d2c2 | d4z2
G2 | c2B2A2G2 | A2B2G2
c2 | G2c2B2G2 | A2A2G4 | z2

@@@ Tune index: 5130
